src/assets/icons/emptyListData.svg

<svg xmlns="http://www.w3.org/2000/svg" xmlns:xlink="http://www.w3.org/1999/xlink" fill="none" version="1.1" width="109" height="125" viewBox="0 0 109 125"><g><g><path d="M101.5735,125L13.42654,125C9.32492,125,6,121.665,6,117.551L6,10.44908C6,6.3350100000000005,9.32492,3,13.42654,3L101.5735,3C105.6751,3,109,6.3350100000000005,109,10.44908L109,117.551C109,121.665,105.6751,125,101.5735,125Z" fill="#C6DCD5" fill-opacity="1"/></g><g><path d="M6,100L6,117.8763C6,121.8107,9.32492,125,13.42654,125L101.5735,125C105.6751,125,109,121.8107,109,117.8763L109,100.00000000000001L6,100Z" fill="#C6DCD5" fill-opacity="1"/></g><g><path d="M97.2911,119L17.7089,119C14.00414,119,11,115.988,11,112.273L11,14.72702C11,11.01174,14.00414,8,17.7089,8L97.2911,8C100.9959,8,104,11.01174,104,14.72702L104,112.273C104,115.988,100.9959,119,97.2911,119L97.2911,119Z" fill="#FFFFFF" fill-opacity="1"/></g><g><path d="M86.309,90.00000000000001L6.71029,90.00000000000001C3.00383,90.00000000000001,0,93.0446,0,96.80136L0,105.76650000000001C0,113.0747,5.84595,119,13.0572,119L98,119C95.249,119,93.0184,116.7392,93.0184,113.9508L93.0184,96.80136C93.0184,93.0446,90.0146,90,86.309,90L86.309,90.00000000000001Z" fill="#DAE8E3" fill-opacity="1"/></g><g><g><path d="M22,45L93,45L93,49L22,49L22,45Z" fill="#EBF5F3" fill-opacity="1"/></g><g><path d="M22,61L93,61L93,65L22,65L22,61Z" fill="#EBF5F3" fill-opacity="1"/></g><g><path d="M22,76L78,76L78,80L22,80L22,76Z" fill="#EBF5F3" fill-opacity="1"/></g></g><g><path d="M67.35040000000001,26L46.64955,26C41.88066,26,38,21.94743,38,16.96628L38,13L41.93136,13L41.93136,16.96628C41.93136,19.68336,44.04774,21.89448,46.64955,21.89448L67.3495,21.89448C69.95230000000001,21.89448,72.0686,19.68434,72.0686,16.96628L72.0686,13L76,13L76,16.96628C76,21.94743,72.11930000000001,26,67.35040000000001,26L67.35040000000001,26Z" fill="#EBF5F3" fill-opacity="1"/></g><g><path d="M74.7458,14L40.25322,14C37.90484,14,36,12.1059,36,9.76869L36,4.23131C36,1.89503,37.90484,0,40.25322,0L74.7458,0C77.0952,0,79,1.89503,79,4.23131L79,9.76869C79,12.1059,77.0952,14,74.7458,14Z" fill="#A2C3B8" fill-opacity="1"/></g></g></svg>

<svg xmlns="http://www.w3.org/2000/svg" width="109" height="125" fill="none"><path fill="#C6DCD5" d="M101.574 125H13.426C9.325 125 6 121.665 6 117.551V10.449C6 6.335 9.325 3 13.427 3h88.146C105.676 3 109 6.335 109 10.45v107.1c0 4.114-3.325 7.449-7.427 7.449"/><path fill="#C6DCD5" d="M6 100v17.876C6 121.811 9.325 125 13.427 125h88.146c4.102 0 7.427-3.19 7.427-7.124V100z"/><path fill="#FFF" d="M97.291 119H17.71c-3.705 0-6.709-3.012-6.709-6.727V14.727C11 11.012 14.004 8 17.709 8H97.29c3.705 0 6.709 3.012 6.709 6.727v97.546c0 3.715-3.004 6.727-6.709 6.727"/><path fill="#DAE8E3" d="M86.309 90H6.71C3.004 90 0 93.045 0 96.801v8.966C0 113.075 5.846 119 13.057 119H98c-2.751 0-4.982-2.26-4.982-5.05V96.802c0-3.756-3.003-6.801-6.709-6.801"/><path fill="#EBF5F3" d="M22 45h71v4H22zm0 16h71v4H22zm0 15h56v4H22zm45.35-50h-20.7C41.88 26 38 21.947 38 16.966V13h3.931v3.966c0 2.717 2.117 4.928 4.719 4.928h20.7c2.602 0 4.719-2.21 4.719-4.928V13H76v3.966C76 21.947 72.12 26 67.35 26"/><path fill="#A2C3B8" d="M74.746 14H40.253C37.905 14 36 12.106 36 9.769V4.23C36 1.895 37.905 0 40.253 0h34.493C77.096 0 79 1.895 79 4.231V9.77c0 2.336-1.905 4.23-4.254 4.23"/></svg>
